packages/foundations/assets/icons/functional/images/arrows/flip_horizontal.svg

<svg xmlns="http://www.w3.org/2000/svg" width="32" height="32" fill="none"><path fill="#1A1C1F" fill-rule="evenodd" d="M20.56 2.107c-.088.04-1.352 1.268-2.809 2.729-2.777 2.786-2.766 2.773-2.763 3.217.001.183.171.535.326.678.153.141.476.282.644.282.422-.001.486-.053 2.295-1.857L20 5.415v6.388c0 6.849-.01 6.584.255 6.883.235.264.795.376 1.148.229.262-.11.498-.413.565-.727.041-.19.059-2.178.059-6.516V5.429l1.64 1.667c1.914 1.947 2.06 2.05 2.632 1.856.597-.203.857-.826.585-1.405-.139-.299-5.181-5.324-5.456-5.438-.239-.099-.649-.1-.868-.002m-9.987 10.994a1.05 1.05 0 0 0-.541.711c-.041.19-.059 2.178-.059 6.516v6.243l-1.635-1.662c-1.008-1.025-1.719-1.705-1.853-1.773a1.1 1.1 0 0 0-.998.016c-.413.226-.588.789-.392 1.263.104.253 5.128 5.302 5.433 5.46.235.123.56.144.834.053.137-.045.884-.761 2.861-2.741 2.793-2.799 2.789-2.794 2.79-3.229.001-.298-.258-.695-.554-.849-.174-.09-.563-.114-.806-.051-.111.029-.694.575-1.906 1.784L12 26.585l-.001-6.399c-.001-6.095-.006-6.409-.099-6.613a1.1 1.1 0 0 0-.201-.304c-.279-.248-.804-.326-1.126-.168"/></svg>

<svg width="32" height="32" viewBox="0 0 32 32" fill="none" xmlns="http://www.w3.org/2000/svg"><path d="M20.560 2.107 C 20.472 2.147,19.208 3.375,17.751 4.836 C 14.974 7.622,14.985 7.609,14.988 8.053 C 14.989 8.236,15.159 8.588,15.314 8.731 C 15.467 8.872,15.790 9.013,15.958 9.013 C 16.380 9.012,16.444 8.960,18.253 7.156 L 20.000 5.415 20.000 11.803 C 20.000 18.652,19.990 18.387,20.255 18.686 C 20.490 18.950,21.050 19.062,21.403 18.915 C 21.665 18.805,21.901 18.502,21.968 18.188 C 22.009 17.998,22.027 16.010,22.027 11.672 L 22.027 5.429 23.667 7.096 C 25.581 9.043,25.727 9.146,26.299 8.952 C 26.896 8.749,27.156 8.126,26.884 7.547 C 26.745 7.248,21.703 2.223,21.428 2.109 C 21.189 2.010,20.779 2.009,20.560 2.107 M10.573 13.101 C 10.304 13.234,10.098 13.505,10.032 13.812 C 9.991 14.002,9.973 15.990,9.973 20.328 L 9.973 26.571 8.338 24.909 C 7.330 23.884,6.619 23.204,6.485 23.136 C 6.183 22.981,5.787 22.988,5.487 23.152 C 5.074 23.378,4.899 23.941,5.095 24.415 C 5.199 24.668,10.223 29.717,10.528 29.875 C 10.763 29.998,11.088 30.019,11.362 29.928 C 11.499 29.883,12.246 29.167,14.223 27.187 C 17.016 24.388,17.012 24.393,17.013 23.958 C 17.014 23.660,16.755 23.263,16.459 23.109 C 16.285 23.019,15.896 22.995,15.653 23.058 C 15.542 23.087,14.959 23.633,13.747 24.842 L 12.000 26.585 11.999 20.186 C 11.998 14.091,11.993 13.777,11.900 13.573 C 11.846 13.456,11.755 13.319,11.699 13.269 C 11.420 13.021,10.895 12.943,10.573 13.101 " fill="#1A1C1F" stroke="none" fill-rule="evenodd"></path></svg>
